icons/home-largedoor.svg

<svg width="24" height="24" viewBox="0 0 24 24" fill="none" xmlns="http://www.w3.org/2000/svg">
<path fill-rule="evenodd" clip-rule="evenodd" d="M10.7481 4.69499C11.4629 4.0517 12.5299 4.0517 13.2447 4.69499L18.2509 9.10055L18.2525 9.10195C18.8753 9.64689 19.1964 10.4338 19.1964 11.2375V18.3687L19.199 18.3998C19.2576 19.1025 18.6702 19.7875 17.7464 19.7875H17.2964V15.9375C17.2964 14.7234 16.3607 13.7875 15.1464 13.7875H8.94641C7.7322 13.7875 6.79639 14.7233 6.79639 15.9375V19.7875H6.2464C5.4606 19.7875 4.79639 19.1233 4.79639 18.3375V11.2375C4.79639 10.4826 5.17991 9.67247 5.7607 9.08398L10.7419 4.70059L10.7481 4.69499ZM8.29639 19.7875H15.7964V15.9375C15.7964 15.5517 15.5322 15.2875 15.1464 15.2875H8.94641C8.56062 15.2875 8.29639 15.5517 8.29639 15.9375V19.7875ZM9.74796 3.5771C11.0321 2.42435 12.9606 2.42433 14.2448 3.57705L19.2403 7.97309L19.2412 7.9739C20.2178 8.82891 20.6964 10.0416 20.6964 11.2375V18.3087C20.8167 19.9898 19.4116 21.2875 17.7464 21.2875H6.2464C4.6322 21.2875 3.29639 19.9518 3.29639 18.3375V11.2375C3.29639 9.99939 3.90582 8.81743 4.71607 8.00719L4.73298 7.99028L9.74796 3.5771Z" fill="black"/>
</svg>

<svg xmlns="http://www.w3.org/2000/svg" fill="none" viewBox="0 0 24 24">
  <path fill="#000" fill-rule="evenodd" d="M10.748 4.695a1.856 1.856 0 0 1 2.497 0l5.006 4.406h.002c.622.546.943 1.333.943 2.136v7.132l.003.03c.059.703-.529 1.389-1.453 1.389h-.45v-3.85c0-1.215-.935-2.15-2.15-2.15h-6.2c-1.214 0-2.15.935-2.15 2.15v3.85h-.55a1.47 1.47 0 0 1-1.45-1.45v-7.1c0-.755.384-1.566.965-2.154l4.98-4.383.007-.006ZM8.296 19.788h7.5v-3.85c0-.386-.264-.65-.65-.65h-6.2c-.385 0-.65.264-.65.65v3.85Zm1.452-16.21a3.356 3.356 0 0 1 4.497-.001l4.995 4.396h.001c.977.856 1.455 2.069 1.455 3.265v7.07c.12 1.682-1.284 2.98-2.95 2.98h-11.5a2.97 2.97 0 0 1-2.95-2.95v-7.1c0-1.239.61-2.42 1.42-3.23l.017-.018 5.015-4.413Z" clip-rule="evenodd"/>
</svg>
